X:1006
T:Lady Cathrine Stewart's Strathspey.
N:The Haughs of Cromdale
N:No repeat is marked for the first part in the book.
N:Alternate or doubling for first part:
N:x|x2B>B x4|x2B>B x4|x2B>B x4|x8:|
I: || ||
M:C
L:1/8
Q:1/4=120
Z:Jack Campin * www.campin.me.uk * 2009
K:E Dorian
e|B<EE>A   B>AF>A      |B<EE<F   D>E {DE}FA|BEE>A       B>AFA   |(Bc/d/)    (B/A/G/F/) E2E:|
F|D(dd>)e (d/c/B/c/) d2|FAA>B {B}AG/F/   A2|Be ef/g/ {g}fe/d/ e2|(B/A/B/d/) (B/A/G/F/) E2E
F|Ddd>e    d/c/B/c/  d2|FAA>B {B}AG/F/   A2|Eee>f       g<ef>d  | B>d     {B}AG/F/     E2E|]

